X:48
T:Saturday Night
M:C
R:reel
Q:1/2=120
L:1/8
K:C
ef|"C"g2 ef ag e2|"C"c2G2E4| "G"FGFE DEFG|"D"AGG^F ""G2 ef|
"C"g2 ef ag e2|"C"c2G2E4|"G7"FEFG dcBd|"C"c2e2c2:|
|:AB|"C"c2G2 EFGE|"C"c2G2E4| "G"FGFE DEFG|"D"AGG^F "G"G2 AB|
"C"c2G2 EFGE|"C"c2G2E4|"G7"FEFG dcBd|"C"c2e2c2:|
%%newpage
